X:15
T:10b. Gargoyle, The
C:Larry Mallette
R:reel
M:C|
Q:360
K:D
"Reel" 
dc|BF~F2 BFdF|BFFD E3F|GFEF GBAG |GFFE F2 DF|
BdBG AF~F2|GBGE F2FE|DF~F2 DFBF|GEFA B2:|
de|f2df afdf|ecAc e2fe|dB~B2 FB~B2|cAB/c/d e2de|
fbfd ~e3c|dfdB c2dc|BF~F2 DFBF|GEFA B2:|





